assets/static/svgs/logos/logo-aposta10-full.svg

<svg width="1em" height="auto"  viewBox="0 0 185 81" fill="none" xmlns="http://www.w3.org/2000/svg">
<symbol id="item"
width="1em"
height="auto"
viewBox="0 0 185 81"
fill="none"
>
 <g clip-path="url(#clip0)"> <path d="M155.03 16.45C155.03 16.45 142.03 24.58 128.03 26.69C128.03 26.69 133.3 59.07 135.41 62.22C137.52 65.37 151.89 80.2999 155.06 80.2999C158.23 80.2999 172.56 65.39 174.68 62.22C176.8 59.05 182.06 26.74 182.06 26.74C168.06 24.63 155.06 16.5 155.06 16.5" fill="#F5EB28"/> <path d="M155.03 16.45C155.03 16.45 142.03 24.58 128.03 26.69C128.03 26.69 133.3 59.07 135.41 62.22C137.52 65.37 151.89 80.2999 155.06 80.2999" fill="#D9D226"/> <path d="M155.03 73.91C149.702 69.4628 144.767 64.5647 140.28 59.27C139.19 56.54 136.67 43.63 134.54 31.19C141.677 29.3182 148.558 26.5812 155.03 23.04C161.515 26.5852 168.409 29.3223 175.56 31.19C173.44 43.63 170.91 56.54 169.82 59.27C165.337 64.5648 160.405 69.4629 155.08 73.91" fill="#005E4C"/> <path d="M155.03 0L156.34 3.31L159.9 3.54L157.15 5.82L158.04 9.27L155.03 7.36L152.01 9.27L152.9 5.82L150.15 3.54L153.71 3.31L155.03 0Z" fill="#606161"/> <path d="M181.34 10.87L182.31 13.32L184.93 13.49L182.91 15.16L183.56 17.71L181.34 16.3L179.12 17.71L179.77 15.16L177.74 13.49L180.37 13.32L181.34 10.87Z" fill="#606161"/> <path d="M128 10.87L128.97 13.32L131.59 13.49L129.57 15.16L130.22 17.71L128 16.3L125.77 17.71L126.43 15.16L124.4 13.49L127.03 13.32L128 10.87Z" fill="#606161"/> <path d="M13.2901 56.56L12.6101 54.06C11.7482 55.0155 10.7133 55.7993 9.56006 56.37C8.48497 56.8773 7.30872 57.1337 6.12006 57.12C5.32413 57.1273 4.53278 56.9988 3.78006 56.74C3.04753 56.5085 2.36788 56.1347 1.78006 55.64C1.20905 55.1594 0.751453 54.5584 0.440057 53.88C0.105572 53.153 -0.0618583 52.3603 -0.0499429 51.56C-0.0499429 48 2.38339 45.6234 7.25006 44.43L11.9701 43.29V42.69C12.0104 41.8113 11.7532 40.9446 11.2401 40.23C10.9594 39.9046 10.6054 39.6505 10.2073 39.4888C9.80908 39.3271 9.37816 39.2624 8.95006 39.3C8.07588 39.2947 7.20704 39.4366 6.38006 39.72C5.52647 40.0323 4.74186 40.5078 4.07006 41.12L0.560057 38.18C1.78496 37.1802 3.15807 36.3773 4.63006 35.8C6.21622 35.26 7.8849 35.0028 9.56006 35.04C10.752 35.0084 11.9374 35.2264 13.0401 35.68C13.9475 36.061 14.7526 36.6502 15.3901 37.4C16.0089 38.1396 16.4715 38.9968 16.7501 39.92C17.054 40.9114 17.2057 41.9431 17.2001 42.98V52.53L17.6601 56.53L13.2901 56.56ZM12.0201 46.56L8.41006 47.56C7.47556 47.7614 6.61836 48.2264 5.94006 48.9C5.44953 49.4506 5.17898 50.1626 5.18006 50.9C5.16819 51.1879 5.2143 51.4752 5.31565 51.7449C5.41701 52.0146 5.57153 52.2612 5.77006 52.47C5.99347 52.674 6.25541 52.8313 6.54049 52.9326C6.82556 53.034 7.12801 53.0773 7.43006 53.06C8.06914 53.0495 8.69908 52.9065 9.28006 52.64C10.0009 52.2909 10.6543 51.8169 11.2101 51.24L12.0201 50.47V46.56Z" fill="#4E5259"/> <path d="M41.77 46.08C41.7864 47.5833 41.6083 49.0824 41.24 50.54C40.9376 51.7818 40.4307 52.9646 39.74 54.04C39.1313 54.9692 38.317 55.7459 37.36 56.31C36.4047 56.856 35.3203 57.1358 34.22 57.12C33.2601 57.127 32.3129 56.9005 31.46 56.46C30.5501 55.9748 29.7312 55.3353 29.04 54.57V68.27L23.77 70.14V35.59H27.77L28.45 38.1C29.2942 37.1576 30.2874 36.3603 31.39 35.74C32.398 35.2352 33.5129 34.9814 34.64 35C35.6978 34.9919 36.7368 35.2794 37.64 35.83C38.5615 36.412 39.3324 37.2035 39.89 38.14C40.5369 39.224 41.003 40.4062 41.27 41.64C41.6053 43.0961 41.7731 44.5858 41.77 46.08V46.08ZM36.51 46.08C36.51 41.64 35.43 39.41 33.28 39.41C32.5652 39.424 31.8701 39.6464 31.28 40.05C30.443 40.6196 29.6805 41.2914 29.01 42.05V50.05C29.6312 50.8018 30.3433 51.4736 31.13 52.05C31.7003 52.4544 32.3809 52.6742 33.08 52.68C33.6153 52.675 34.1375 52.5145 34.5832 52.218C35.0288 51.9215 35.3786 51.5018 35.59 51.01C36.2894 49.4635 36.6214 47.7761 36.56 46.08H36.51Z" fill="#4E5259"/> <path d="M64.19 46.08C64.1894 47.5888 63.9773 49.0901 63.56 50.54C63.1988 51.8129 62.5906 53.0022 61.77 54.04C60.9625 55.0222 59.9347 55.8 58.77 56.31C56.1017 57.3898 53.1182 57.3898 50.45 56.31C49.2853 55.8 48.2575 55.0222 47.45 54.04C46.6287 53.0041 46.0234 51.814 45.67 50.54C45.2578 49.0897 45.0557 47.5877 45.07 46.08C45.055 44.5789 45.2571 43.0834 45.67 41.64C46.0587 40.3644 46.7016 39.1806 47.56 38.16C48.3665 37.172 49.3942 36.3875 50.56 35.87C51.8785 35.3221 53.2922 35.04 54.72 35.04C56.1478 35.04 57.5615 35.3221 58.88 35.87C60.0458 36.3875 61.0735 37.172 61.88 38.16C62.6594 39.2007 63.2299 40.3825 63.56 41.64C63.9774 43.0831 64.1895 44.5778 64.19 46.08ZM58.93 46.08C59.0776 44.2525 58.7323 42.4187 57.93 40.77C57.5576 40.2714 57.074 39.8664 56.5176 39.5875C55.9612 39.3086 55.3474 39.1634 54.725 39.1634C54.1026 39.1634 53.4888 39.3086 52.9324 39.5875C52.376 39.8664 51.8924 40.2714 51.52 40.77C50.82 41.85 50.52 43.62 50.52 46.08C50.52 48.54 50.86 50.31 51.52 51.39C51.8924 51.8887 52.376 52.2936 52.9324 52.5726C53.4888 52.8515 54.1026 52.9967 54.725 52.9967C55.3474 52.9967 55.9612 52.8515 56.5176 52.5726C57.074 52.2936 57.5576 51.8887 57.93 51.39C58.7323 49.7413 59.0776 47.9076 58.93 46.08V46.08Z" fill="#4E5259"/> <path d="M84.02 50.9601C84.0429 51.8343 83.8495 52.7008 83.4569 53.4823C83.0644 54.2639 82.4849 54.9364 81.77 55.4401C79.9825 56.6439 77.852 57.2336 75.7 57.1201C73.9712 57.1504 72.2592 56.7772 70.7 56.0301C69.3143 55.3632 68.1127 54.3676 67.2 53.1301L71.02 50.4901C71.5492 51.2821 72.272 51.9258 73.1199 52.3601C73.929 52.7814 74.8278 53.001 75.74 53.0001C76.5789 53.046 77.4122 52.8368 78.13 52.4001C78.3906 52.2496 78.6077 52.0342 78.7602 51.7748C78.9127 51.5154 78.9953 51.2209 79 50.9201C79.0011 50.4864 78.8447 50.0671 78.56 49.7401C78.1147 49.2879 77.5704 48.9455 76.97 48.7401L73.49 47.4701C71.9196 46.9794 70.5012 46.0946 69.3699 44.9001C68.4708 43.8114 68.0013 42.4312 68.0499 41.0201C68.0601 40.2329 68.2338 39.4565 68.56 38.7401C68.9021 38.0022 69.4043 37.3497 70.03 36.8301C70.7302 36.2525 71.5348 35.8146 72.3999 35.5401C73.4581 35.2108 74.5619 35.0522 75.67 35.0701C77.2 34.9974 78.7258 35.2822 80.1266 35.9019C81.5274 36.5216 82.7645 37.4591 83.74 38.6401L79.92 41.2301C79.4356 40.568 78.8041 40.0274 78.0753 39.6508C77.3465 39.2743 76.5402 39.072 75.72 39.0601C75.012 38.9991 74.3049 39.1865 73.72 39.5901C73.5176 39.7576 73.3558 39.9688 73.2466 40.2078C73.1375 40.4468 73.084 40.7074 73.09 40.9701C73.086 41.3943 73.2271 41.8071 73.49 42.1401C73.846 42.5502 74.3104 42.8517 74.8299 43.0101L78.35 44.2801C80.0522 44.7734 81.5807 45.737 82.7599 47.0601C83.6036 48.1829 84.0471 49.5558 84.02 50.9601V50.9601Z" fill="#4E5259"/> <path d="M98.92 56.88C98.0504 57.0493 97.1659 57.1297 96.28 57.12C95.473 57.1861 94.6609 57.0882 93.8926 56.8321C93.1244 56.576 92.416 56.1671 91.81 55.63C91.3011 55.077 90.9087 54.4272 90.6561 53.7194C90.4036 53.0116 90.2961 52.2602 90.34 51.51V39.97H86.65V35.59H90.34V30.16L95.61 28.33V35.59H101.21L100.15 39.97H95.61V51.17C95.61 52.25 96.17 52.79 97.3 52.79C97.781 52.7786 98.2598 52.7217 98.73 52.62C99.2837 52.5017 99.8284 52.3447 100.36 52.15L101.29 56.15C100.522 56.4586 99.7289 56.7028 98.92 56.88V56.88Z" fill="#4E5259"/> <path d="M117.34 56.56L116.66 54.06C115.812 55.009 114.794 55.7922 113.66 56.37C112.584 56.8753 111.408 57.1316 110.22 57.12C109.424 57.1241 108.632 56.9922 107.88 56.73C107.149 56.4947 106.47 56.1213 105.88 55.63C105.319 55.1444 104.869 54.5443 104.56 53.87C104.23 53.1414 104.063 52.3498 104.07 51.55C104.07 47.99 106.507 45.6134 111.38 44.42L116.09 43.28V42.68C116.133 41.8024 115.88 40.9358 115.37 40.22C115.087 39.895 114.731 39.6414 114.331 39.4798C113.932 39.3182 113.5 39.2532 113.07 39.29C112.199 39.2846 111.334 39.4266 110.51 39.71C109.653 40.0211 108.865 40.4967 108.19 41.11L104.67 38.18C105.898 37.1844 107.27 36.3819 108.74 35.8C110.326 35.26 111.995 35.0028 113.67 35.04C114.862 35.0063 116.048 35.2244 117.15 35.68C118.06 36.0609 118.869 36.6501 119.51 37.4C120.126 38.1401 120.585 38.9974 120.86 39.92C121.164 40.9114 121.316 41.9431 121.31 42.98V52.53L121.78 56.53L117.34 56.56ZM116.07 46.56L112.46 47.56C111.529 47.7632 110.676 48.2281 110 48.9C109.499 49.445 109.224 50.1599 109.23 50.9C109.218 51.1888 109.265 51.477 109.368 51.747C109.471 52.017 109.628 52.2631 109.83 52.47C110.052 52.6737 110.312 52.8309 110.595 52.9323C110.879 53.0336 111.18 53.0771 111.48 53.06C112.119 53.0507 112.749 52.9076 113.33 52.64C114.052 52.2933 114.706 51.819 115.26 51.24L116.07 50.47V46.56Z" fill="#4E5259"/> <path d="M155.03 73.91C149.702 69.4628 144.767 64.5647 140.28 59.27C139.19 56.54 136.67 43.63 134.54 31.19C141.677 29.3182 148.558 26.5812 155.03 23.04" fill="#005847"/> <path d="M149.56 56.56H143.65V39.94H141.29V34.74H149.56V56.56Z" fill="var(--color--bulma-100)"/> <path d="M169.41 45.74C169.566 48.5063 168.867 51.2535 167.41 53.61C166.821 54.5226 166.008 55.2692 165.049 55.7786C164.09 56.288 163.016 56.5432 161.93 56.52C160.791 56.5595 159.659 56.3119 158.641 55.7999C157.622 55.2879 156.748 54.528 156.1 53.59C154.7 51.59 154 48.91 154 45.41C153.85 42.6368 154.586 39.8879 156.1 37.56C156.732 36.6406 157.583 35.8937 158.577 35.3872C159.57 34.8807 160.675 34.6307 161.79 34.66C162.904 34.6228 164.008 34.874 164.996 35.3891C165.984 35.9042 166.823 36.6657 167.43 37.6C168.757 39.5866 169.417 42.3 169.41 45.74ZM163.56 45.74C163.56 41.8733 162.923 39.94 161.65 39.94C160.377 39.94 159.743 41.67 159.75 45.13C159.75 49.2633 160.367 51.33 161.6 51.33C162.27 51.33 162.77 50.87 163.08 49.97C163.461 48.5938 163.623 47.1664 163.56 45.74V45.74Z" fill="var(--color--bulma-100)"/> </g> <defs> <clipPath id="clip0"> <rect width="184.93" height="80.29" fill="var(--color--bulma-100)"/> </clipPath> </defs> 
</symbol>
</svg>

<svg width="1em" height="auto"    viewBox="0 0 185 81" fill="none" xmlns="http://www.w3.org/2000/svg">
<symbol id="item"
width="1em"
height="auto"
viewBox="0 0 185 81"
fill="none"
>
<g clip-path="url(#a)"><path d="M155.03 16.45s-13 8.13-27 10.24c0 0 5.27 32.38 7.38 35.53 2.11 3.15 16.48 18.08 19.65 18.08 3.17 0 17.5-14.91 19.62-18.08 2.12-3.17 7.38-35.48 7.38-35.48-14-2.11-27-10.24-27-10.24" fill="#F5EB28"/><path d="M155.03 16.45s-13 8.13-27 10.24c0 0 5.27 32.38 7.38 35.53 2.11 3.15 16.48 18.08 19.65 18.08" fill="#D9D226"/><path d="M155.03 73.91a120.8 120.8 0 0 1-14.75-14.64c-1.09-2.73-3.61-15.64-5.74-28.08a90.537 90.537 0 0 0 20.49-8.15 90.447 90.447 0 0 0 20.53 8.15c-2.12 12.44-4.65 25.35-5.74 28.08a120.633 120.633 0 0 1-14.74 14.64" fill="#005E4C"/><path d="m155.03 0 1.31 3.31 3.56.23-2.75 2.28.89 3.45-3.01-1.91-3.02 1.91.89-3.45-2.75-2.28 3.56-.23L155.03 0ZM181.34 10.87l.97 2.45 2.62.17-2.02 1.67.65 2.55-2.22-1.41-2.22 1.41.65-2.55-2.03-1.67 2.63-.17.97-2.45ZM128 10.87l.97 2.45 2.62.17-2.02 1.67.65 2.55L128 16.3l-2.23 1.41.66-2.55-2.03-1.67 2.63-.17.97-2.45Z" fill="#606161"/><path d="m13.29 56.56-.68-2.5a10.2 10.2 0 0 1-3.05 2.31 7.849 7.849 0 0 1-3.44.75 7 7 0 0 1-2.34-.38 5.838 5.838 0 0 1-2-1.1 5.059 5.059 0 0 1-1.34-1.76 5.36 5.36 0 0 1-.49-2.32c0-3.56 2.433-5.937 7.3-7.13l4.72-1.14v-.6a3.91 3.91 0 0 0-.73-2.46 2.712 2.712 0 0 0-2.29-.93 7.782 7.782 0 0 0-2.57.42 7 7 0 0 0-2.31 1.4L.56 38.18a15.23 15.23 0 0 1 4.07-2.38 14.311 14.311 0 0 1 4.93-.76 8.552 8.552 0 0 1 3.48.64c.908.381 1.713.97 2.35 1.72a7.143 7.143 0 0 1 1.36 2.52c.304.991.456 2.023.45 3.06v9.55l.46 4-4.37.03Zm-1.27-10-3.61 1a5 5 0 0 0-2.47 1.34 3 3 0 0 0-.76 2 2.15 2.15 0 0 0 .59 1.57 2.27 2.27 0 0 0 1.66.59 4.62 4.62 0 0 0 1.85-.42 6.79 6.79 0 0 0 1.93-1.4l.81-.77v-3.91ZM41.77 46.08a17.43 17.43 0 0 1-.53 4.46 11.52 11.52 0 0 1-1.5 3.5 7.24 7.24 0 0 1-2.38 2.27 6.15 6.15 0 0 1-3.14.81 5.92 5.92 0 0 1-2.76-.66 8.91 8.91 0 0 1-2.42-1.89v13.7l-5.27 1.87V35.59h4l.68 2.51a11.55 11.55 0 0 1 2.94-2.36 7 7 0 0 1 3.25-.74 5.68 5.68 0 0 1 3 .83 6.918 6.918 0 0 1 2.25 2.31 11.63 11.63 0 0 1 1.38 3.5c.335 1.456.503 2.946.5 4.44Zm-5.26 0c0-4.44-1.08-6.67-3.23-6.67a3.67 3.67 0 0 0-2 .64 12.16 12.16 0 0 0-2.27 2v8a11.787 11.787 0 0 0 2.12 2 3.42 3.42 0 0 0 1.95.63 2.76 2.76 0 0 0 2.51-1.67c.7-1.546 1.031-3.234.97-4.93h-.05ZM64.19 46.08c0 1.509-.213 3.01-.63 4.46a10.079 10.079 0 0 1-1.79 3.5 8.079 8.079 0 0 1-3 2.27 11.09 11.09 0 0 1-8.32 0 8.079 8.079 0 0 1-3-2.27 9.888 9.888 0 0 1-1.78-3.5 15.767 15.767 0 0 1-.6-4.46 15.578 15.578 0 0 1 .6-4.44 9.881 9.881 0 0 1 1.89-3.48 8.131 8.131 0 0 1 3-2.29 10.84 10.84 0 0 1 8.32 0 8.131 8.131 0 0 1 3 2.29c.78 1.04 1.35 2.223 1.68 3.48a16 16 0 0 1 .63 4.44Zm-5.26 0a10.25 10.25 0 0 0-1-5.31 4 4 0 0 0-6.41 0c-.7 1.08-1 2.85-1 5.31 0 2.46.34 4.23 1 5.31a4 4 0 0 0 6.41 0 10.25 10.25 0 0 0 1-5.31ZM84.02 50.96a5.31 5.31 0 0 1-2.25 4.48 9.93 9.93 0 0 1-6.07 1.68 11.12 11.12 0 0 1-5-1.09 9.43 9.43 0 0 1-3.5-2.9l3.82-2.64a5.591 5.591 0 0 0 2.1 1.87 5.66 5.66 0 0 0 2.62.64 4.161 4.161 0 0 0 2.39-.6 1.74 1.74 0 0 0 .87-1.48 1.79 1.79 0 0 0-.44-1.18 4.09 4.09 0 0 0-1.59-1l-3.48-1.27a9.63 9.63 0 0 1-4.12-2.57 5.78 5.78 0 0 1-1.32-3.88 5.68 5.68 0 0 1 .51-2.28 5.478 5.478 0 0 1 1.47-1.91 7.098 7.098 0 0 1 2.37-1.29 10.438 10.438 0 0 1 3.27-.47 9.859 9.859 0 0 1 8.07 3.57l-3.82 2.59a5.3 5.3 0 0 0-4.2-2.17 3.06 3.06 0 0 0-2 .53 1.74 1.74 0 0 0-.63 1.38 1.86 1.86 0 0 0 .4 1.17c.356.41.82.712 1.34.87l3.52 1.27a9.42 9.42 0 0 1 4.41 2.78 6.29 6.29 0 0 1 1.26 3.9ZM98.92 56.88c-.87.17-1.754.25-2.64.24a6 6 0 0 1-4.47-1.49 5.602 5.602 0 0 1-1.47-4.12V39.97h-3.69v-4.38h3.69v-5.43l5.27-1.83v7.26h5.6l-1.06 4.38h-4.54v11.2c0 1.08.56 1.62 1.69 1.62.481-.011.96-.068 1.43-.17a12.076 12.076 0 0 0 1.63-.47l.93 4c-.768.309-1.561.553-2.37.73ZM117.34 56.56l-.68-2.5a10.286 10.286 0 0 1-3 2.31 7.912 7.912 0 0 1-3.44.75 7 7 0 0 1-2.34-.39 5.997 5.997 0 0 1-2-1.1 5.184 5.184 0 0 1-1.32-1.76 5.506 5.506 0 0 1-.49-2.32c0-3.56 2.437-5.937 7.31-7.13l4.71-1.14v-.6a3.909 3.909 0 0 0-.72-2.46 2.737 2.737 0 0 0-2.3-.93 7.722 7.722 0 0 0-2.56.42 7.004 7.004 0 0 0-2.32 1.4l-3.52-2.93a15.55 15.55 0 0 1 4.07-2.38 14.311 14.311 0 0 1 4.93-.76 8.482 8.482 0 0 1 3.48.64c.91.38 1.719.97 2.36 1.72a7.116 7.116 0 0 1 1.35 2.52c.304.991.456 2.023.45 3.06v9.55l.47 4-4.44.03Zm-1.27-10-3.61 1A5.002 5.002 0 0 0 110 48.9a2.92 2.92 0 0 0-.77 2 2.129 2.129 0 0 0 .6 1.57 2.258 2.258 0 0 0 1.65.59 4.581 4.581 0 0 0 1.85-.42 6.664 6.664 0 0 0 1.93-1.4l.81-.77v-3.91Z" fill="#4E5259"/><path d="M155.03 73.91a120.8 120.8 0 0 1-14.75-14.64c-1.09-2.73-3.61-15.64-5.74-28.08a90.537 90.537 0 0 0 20.49-8.15" fill="#005847"/><path d="M149.56 56.56h-5.91V39.94h-2.36v-5.2h8.27v21.82ZM169.41 45.74a13.519 13.519 0 0 1-2 7.87 6.363 6.363 0 0 1-5.48 2.91 6.798 6.798 0 0 1-5.83-2.93c-1.4-2-2.1-4.68-2.1-8.18a13.101 13.101 0 0 1 2.1-7.85 6.693 6.693 0 0 1 5.69-2.9 6.467 6.467 0 0 1 5.64 2.94c1.327 1.987 1.987 4.7 1.98 8.14Zm-5.85 0c0-3.867-.637-5.8-1.91-5.8s-1.907 1.73-1.9 5.19c0 4.133.617 6.2 1.85 6.2.67 0 1.17-.46 1.48-1.36.381-1.376.543-2.804.48-4.23Z" fill="var(--color--bulma-100)"/></g><defs><clipPath id="a"><path fill="var(--color--bulma-100)" d="M0 0h184.93v80.29H0z"/></clipPath></defs>
</symbol>
</svg>
